X: 4317
T: HEALTH TO THE LADY. (Maritana.)
%R: air, waltz, jig
B: James Kerr "Merry Melodies" v.4 p.33 #317
Z: 2016 John Chambers <jc:trillian.mit.edu>
M: 6/8
L: 1/8
K: G
|:\
   G3- GFE | D3- D2G | FAc e2d | (^c3  d2)z |\
[1 B3  B3  | B3- Bcd | f3- fec |   A3- A2D :|\
[2 d3 ^d3  | f3- fec | A3  d3  |   B3- B2z |\
   d3 ^d3  | f3- fec | A3  d3  |   G3- G2z |]

%%sep 1 1 500
%%sep 1 1 500

